X: 21627
T: Killavil Postman, The
R: barndance
M: 4/4
K: Dmajor
M:2/4
Ad d/e/d/B/|A/B/A/F/ E/D/E/F/|DD DE|F2- FF/G/|
Ad d/e/d/B/|A/B/A/F/ Ec/d/|ee ef|B2- BF/G/|
Ad d/e/d/B/|A/B/A/F/ E/D/E/F/|DD DE|F2- FG/A/|
BB G/F/E|AA F/E/D|A, D2 E|D2- Dd/e/||
ff d/c/B|ff d/c/B|f f2 g|f2- fc/d/|
ee c/B/A|ee c/B/A|e e2 f|B2- Bd/e/|
ff d/c/B|ff d/c/B|f f2 g|f2- fd/e/|
ff ee|dd c2|c/d/e/d/ c/d/e/d/|cB A2||

